X: 145
T: No_228_Ball_Game_Song_(k).krn
N: Derived from No_228_Ball_Game_Song_(k).krn
%%abc-version 2.0
%%abcx-abcm2ps-target-version 5.9.1 (29 Sep 2008)
%%abc-creator hum2abc beta
%%abcx-conversion-date 2019/03/15 08:38:45
%%humdrum-veritas 1009827976
%%humdrum-veritas-data 1817590399
%%linebreak <none>
%%barnumbers 0
L: 1/8
M: 2/4
K: F clef=bass
[K:clef=bass][M:2/4]C3/C/ CB,/ z/ | 
CA, A, z | 
C3/D/ (C/A,/)(A,/F,/) ||  
[M:3/4]A,F, F,A,3//C// A,/F,/A,/F,/ ||  
[M:2/4]A,F,/F,/ F, z | 
F,3/A,/ F,B,/B,/ ||  
[M:3/4]A,F, F,C/C/ B,A,/F,/ ||  
[M:2/4]A,F, F, z | 
F,3/A,/ F,B,/B,/ ||  
[M:3/8]A,F,F, | 
[M:2/4]C4 |]  



